outputs/icons/general/to_do_round.svg

<svg xmlns="http://www.w3.org/2000/svg" width="1200" height="1200" fill="none"><g clip-path="url(#a)"><path fill="#000" fill-rule="evenodd" d="M975 1066.005c-1.4 1.56-2.86 3.105-4.375 4.62A115 115 0 0 1 966 1075q-27.945 24.999-66 25H300q-38.054-.001-66.002-25a116 116 0 0 1-8.998-8.995q-25-27.951-25-66.005V200q0-38.054 25-66.002a114 114 0 0 1 4.375-4.623 115 115 0 0 1 4.623-4.375q27.948-25 66.002-25h400l300 300v600q-.001 38.054-25 66.005M868.935 375 725 231.066V375zM830 617.5 757.5 545 546.25 756.25l-105-105L370 722.5 547.5 900z"/></g><defs><clipPath id="a"><path fill="#fff" d="M0 0h1200v1200H0z"/></clipPath></defs></svg>

<svg width="1200" height="1200" viewBox="0 0 1200 1200" fill="none" xmlns="http://www.w3.org/2000/svg"><g clip-path="url(#clip0_8222_169)"><path fill-rule="evenodd" d="M975 1066.005C973.6 1067.565 972.14 1069.11 970.625 1070.625C969.11 1072.14 967.565 1073.6 966 1075C947.37 1091.665 925.37 1100 900 1100H300C274.63 1100 252.63 1091.665 233.998 1075C232.433 1073.6 230.892 1072.14 229.375 1070.625C227.858 1069.11 226.399 1067.565 225 1066.005C208.333 1047.37 200 1025.37 200 1000V200C200 174.631 208.333 152.63 225 133.998C226.399 132.433 227.858 130.892 229.375 129.375C230.892 127.858 232.433 126.4 233.998 125C252.63 108.333 274.63 100 300 100H700L1000 400V1000C1000 1025.37 991.665 1047.37 975 1066.005ZM868.935 375L725 231.066V375H868.935ZM830 617.5L757.5 545L546.25 756.25L441.25 651.25L370 722.5L547.5 900L830 617.5Z" fill="black"/></g><defs><clipPath id="clip0_8222_169"><path width="24" fill="white" d="M0 0H1200V1200H0V0z"/></clipPath></defs></svg>
